T: David's
M: 4/4
L: 1/8
K: Gmaj
|: DF |G2 BG FADF | GBd^c d2 =cB | cea^g afdc | Bdgf g2 cA |
GFGD (3EFG (3DEF | GB d^c dGBd | ceag fdef | gbaf g2 :|
|: dc |(3Bcd ce d2 (3dBG | FA (3DEF G2 BG | FADc BdGB | AcDc BdGB |
cBce (3agf (3edc | BABd (3gfe (3dcB | AfAd (3fed (3cBA | (3GBd (3gdB G2 :|
</html>
